src/icons/assets/icon-facebook.svg

<svg width="14" height="14" viewBox="0 0 14 14" fill="none" xmlns="http://www.w3.org/2000/svg">
<g clip-path="url(#clip0)">
<path d="M13.9998 7.04277C13.9998 3.15252 10.8655 -0.000976562 6.9998 -0.000976562C3.1323 -0.000101562 -0.00195312 3.15252 -0.00195312 7.04365C-0.00195312 10.5585 2.5583 13.4723 5.9043 14.0008V9.0789H4.12805V7.04365H5.90605V5.49052C5.90605 3.72565 6.95167 2.7509 8.5503 2.7509C9.3168 2.7509 10.1174 2.88827 10.1174 2.88827V4.62077H9.23455C8.36567 4.62077 8.09442 5.16415 8.09442 5.72152V7.04277H10.0352L9.72542 9.07802H8.09355V13.9999C11.4395 13.4714 13.9998 10.5576 13.9998 7.04277Z" fill="#EDEBEE"/>
</g>
<defs>
<clipPath id="clip0">
<rect width="14" height="14" fill="white"/>
</clipPath>
</defs>
</svg>

<svg xmlns="http://www.w3.org/2000/svg" fill="none" viewBox="0 0 14 14">
  <defs />
  <g clip-path="url(#clip0)">
    <path fill="#EDEBEE" d="M14 7.043c0-3.89-3.134-7.044-7-7.044-3.868 0-7.002 3.154-7.002 7.045 0 3.515 2.56 6.428 5.906 6.957V9.079H4.128V7.044h1.778V5.49c0-1.765 1.046-2.74 2.644-2.74.767 0 1.567.137 1.567.137v1.733h-.882c-.87 0-1.14.543-1.14 1.1v1.322h1.94l-.31 2.035H8.094V14C11.44 13.47 14 10.558 14 7.043z" />
  </g>
  <defs>
    <clipPath id="clip0">
      <path fill="#fff" d="M0 0h14v14H0z" />
    </clipPath>
  </defs>
</svg>
